icon/lg/tumblr.svg

<?xml version="1.0" encoding="UTF-8" standalone="no"?>
<svg viewBox="0 0 512 108" version="1.1" xmlns="http://www.w3.org/2000/svg" xmlns:xlink="http://www.w3.org/1999/xlink" preserveAspectRatio="xMidYMid" height="1em" width="1em">
  <g>
    <path d="M46.7969671,88.1498256 C38.39648,88.3674264 36.7708742,82.3733478 36.6995596,78.0195037 L36.6995596,47.8296816 L56.2781439,47.8296816 L56.2781439,30.3320191 L36.7781885,30.3320191 L36.7781885,4.32598335 L21.403505,4.32598335 C21.1511613,4.32598335 20.710474,4.54358413 20.6483023,5.0939861 C19.7468134,13.1031576 15.9159426,27.1612649 0,32.7768278 L0,47.8296816 L12.1161576,47.8296816 L12.1161576,79.6103665 C12.1161576,91.1011504 19.2823546,107.424866 42.1395791,107.040864 C49.8525209,106.912864 58.4212372,103.751253 60.3174726,101.024843 L55.2687688,86.3779335 C53.3158476,87.2849082 49.5855485,88.078511 46.7969671,88.1498256 L46.7969671,88.1498256 Z M140.526216,86.2883332 L140.526216,30.3338477 L106.143465,30.3338477 L106.143465,46.7636206 L112.768403,46.7654492 C114.948068,46.7654492 115.864185,47.6925382 115.893442,49.7240883 L115.858699,75.2473795 C115.858699,77.7488741 114.053893,87.1441077 101.528134,87.3818228 C92.9923321,87.5445663 91.1966686,82.5104912 91.1966686,75.9093247 L91.1966686,30.3338477 L65.8781781,30.3338477 L65.8781781,77.2112722 C65.8781781,89.0732575 71.2944261,107.733896 96.5708592,107.050007 C104.868946,106.823264 114.375723,102.650449 119.31654,96.5301984 L119.52317,105.954689 L147.736299,105.954689 L147.736299,89.8814889 C147.736299,89.8814889 145.454234,89.7041168 143.746342,89.590745 C141.751363,89.460916 140.526216,88.3875407 140.526216,86.2883332 L140.526216,86.2883332 Z M287.260455,86.1310755 C287.260455,86.1310755 287.262283,67.4612946 287.262283,63.191565 C287.262283,55.0141644 287.16354,46.5661342 281.752778,39.6705667 C276.797331,33.3583156 268.572388,28.7283562 256.086857,29.3299584 C247.796085,29.7304169 238.951253,33.5832307 234.06895,40.1825686 L233.299119,41.1535435 L232.831003,40.5903414 C227.811556,33.3418584 219.796899,28.7283562 207.313198,29.3299584 C199.018768,29.7304169 190.173936,33.5832307 185.291633,40.1825686 L184.558373,30.3301905 L153.964436,30.3301905 L153.964436,46.7636206 L161.004461,46.8678496 C163.182297,46.8678496 164.102072,47.7949386 164.131329,49.8264887 L164.133158,81.9856893 L164.133158,86.1310755 C164.133158,88.230283 162.898867,89.37863 160.905718,89.508459 C159.197826,89.6218308 155.738156,89.8686889 155.738156,89.8686889 L155.738156,105.941889 L197.111561,105.954689 L197.111561,89.8686889 C197.111561,89.8686889 193.851207,89.638288 191.944,89.508459 C189.949021,89.3731442 188.718388,88.230283 188.718388,86.1310755 C188.718388,86.1310755 188.751303,65.6034593 188.751303,61.4946447 C188.751303,57.3876586 192.148801,48.9633999 202.933753,48.9633999 C211.634127,48.9633999 213.416991,54.266276 213.416991,60.435898 C213.416991,66.6055201 213.426134,86.1329041 213.426134,86.1329041 C213.426134,88.2339402 212.193672,89.37863 210.200522,89.5102876 C208.49263,89.625488 205.032961,89.872346 205.032961,89.872346 L205.032961,105.941889 L246.36248,105.941889 L246.36248,89.8686889 C246.36248,89.8686889 243.102125,89.638288 241.19309,89.508459 C239.19994,89.3731442 237.985764,88.230283 237.985764,86.1310755 L237.923593,86.1310755 C237.923593,86.1310755 237.958336,65.6034593 237.958336,61.4946447 C237.958336,57.3876586 240.988289,48.9633999 251.775071,48.9633999 C260.473616,48.9633999 262.651452,54.266276 262.651452,60.435898 L262.651452,81.9856893 L262.647795,86.1329041 C262.647795,88.2339402 261.413505,89.37863 259.420355,89.5102876 C257.710635,89.625488 254.252794,89.872346 254.252794,89.872346 L254.252794,105.941889 L295.633513,105.941889 L295.633513,89.8686889 C295.633513,89.8686889 292.374987,89.638288 290.46778,89.508459 C288.470973,89.3731442 287.260455,88.230283 287.260455,86.1310755 L287.260455,86.1310755 Z M341.836192,88.3381691 C338.396637,88.5923414 332.0277,88.0126822 327.931685,80.8245423 L327.931685,70.2955904 L327.935343,70.2901047 L327.931685,70.2901047 L327.931685,58.113604 C327.931685,52.8491281 332.793874,48.2301402 340.318473,47.9503677 C347.938157,47.6687667 354.681952,52.8692424 354.681952,67.5600378 C354.681952,87.3763371 345.990721,88.030968 341.836192,88.3381691 L341.836192,88.3381691 Z M345.582949,29.2495009 C339.327383,29.5237876 332.726217,31.9173962 327.931685,36.0847253 L327.931685,0.987 L319.074054,0.987 C319.074054,0.987 304.591716,6.13261838 293.378876,7.507709 L293.013161,23.5790807 L300.102558,23.5882236 C302.278565,23.5882236 303.214797,24.5153126 303.242226,26.5486913 L303.242226,105.887032 L323.499212,105.865089 L326.392023,99.3553513 C327.011911,99.7027811 336.304744,108.437898 351.145483,106.689778 C369.829892,104.486341 379.642042,89.6931454 379.642042,67.2491795 C379.642042,55.474966 376.028772,27.9182962 345.582949,29.2495009 L345.582949,29.2495009 Z M501.26259,43.8397245 C500.437902,25.9105176 476.159872,25.0858289 463.467712,37.1965007 L461.152733,30.2533902 L431.805885,30.2533902 L431.805885,46.6849918 L437.95905,46.6758489 C440.138715,46.6758489 440.946946,47.6011093 440.976203,49.6326594 L440.976203,86.0670753 C440.976203,88.1662828 439.738256,89.3146297 437.745106,89.4426302 C436.035386,89.556002 432.595831,89.8028601 432.595831,89.8028601 L432.595831,105.87606 L473.916207,105.87606 L473.916207,89.8028601 C473.916207,89.8028601 470.498595,89.556002 468.792531,89.4426302 C466.795724,89.3146297 465.559606,88.1662828 465.559606,86.0670753 L465.550463,61.3629871 C465.550463,56.7330277 466.611038,49.0054572 474.782953,47.0287644 C475.792328,54.7563349 483.256583,57.0640003 486.89911,57.0640003 C496.095029,57.0640003 501.26259,50.1775757 501.26259,43.8397245 L501.26259,43.8397245 Z M416.052686,86.0670753 L416.074629,0.987 L407.125568,0.987 C407.125568,0.987 392.257401,6.36484778 381.54742,7.507709 L381.54742,23.5790807 L388.307673,23.5790807 C390.48368,23.5790807 391.394312,24.5061697 391.423569,26.5377198 L391.423569,86.0670753 C391.423569,88.1662828 390.192936,89.3146297 388.197958,89.4426302 C386.490066,89.556002 382.662852,89.8046886 382.662852,89.8046886 L382.662852,105.87606 L424.81706,105.87606 L424.81706,89.8046886 C424.81706,89.8046886 420.986189,89.556002 419.280126,89.4426302 C417.283319,89.3146297 416.052686,88.1662828 416.052686,86.0670753 L416.052686,86.0670753 Z M497.183033,77.8128744 C488.998318,77.8128744 482.367894,84.3098119 482.367894,92.3208119 C482.367894,100.326326 488.998318,106.825092 497.183033,106.825092 C505.369576,106.825092 512,100.326326 512,92.3208119 C512,84.3098119 505.369576,77.8128744 497.183033,77.8128744 L497.183033,77.8128744 Z" fill="#303D4D"/>
  </g>
</svg>

<svg width="512" height="108" xmlns="http://www.w3.org/2000/svg" preserveAspectRatio="xMidYMid"><path d="M46.797 88.15c-8.4.217-10.026-5.777-10.097-10.13V47.83h19.578V30.332h-19.5V4.326H21.404c-.253 0-.694.218-.756.768-.901 8.01-4.732 22.067-20.648 27.683V47.83h12.116v31.78c0 11.491 7.166 27.815 30.024 27.43 7.713-.127 16.281-3.289 18.177-6.015L55.27 86.378c-1.953.907-5.683 1.7-8.472 1.772Zm93.73-1.862V30.334h-34.384v16.43l6.625.001c2.18 0 3.096.928 3.125 2.96l-.034 25.522c0 2.502-1.805 11.897-14.33 12.135-8.537.163-10.332-4.872-10.332-11.473V30.334H65.878V77.21c0 11.862 5.416 30.523 30.693 29.839 8.298-.227 17.805-4.4 22.746-10.52l.206 9.425h28.213V89.88s-2.282-.177-3.99-.29c-1.995-.13-3.22-1.203-3.22-3.303Zm146.733-.157.002-22.94c0-8.177-.098-16.625-5.51-23.52-4.955-6.313-13.18-10.943-25.665-10.341-8.29.4-17.136 4.253-22.018 10.853l-.77.97-.468-.563c-5.02-7.248-13.034-11.862-25.518-11.26-8.294.4-17.14 4.253-22.021 10.853l-.734-9.853h-30.594v16.434l7.04.104c2.178 0 3.098.927 3.127 2.958l.002 32.16v4.145c0 2.1-1.234 3.248-3.227 3.377-1.708.114-5.168.36-5.168.36v16.074l41.374.013V89.869s-3.26-.23-5.168-.36c-1.995-.136-3.226-1.279-3.226-3.378 0 0 .033-20.528.033-24.636 0-4.107 3.398-12.532 14.183-12.532 8.7 0 10.483 5.303 10.483 11.473 0 6.17.01 25.697.01 25.697 0 2.1-1.233 3.246-3.226 3.377-1.708.115-5.168.362-5.168.362v16.07h41.33V89.869s-3.26-.23-5.17-.36c-1.993-.136-3.207-1.279-3.207-3.378h-.062s.034-20.528.034-24.636c0-4.107 3.03-12.532 13.817-12.532 8.699 0 10.876 5.303 10.876 11.473v21.55l-.003 4.147c0 2.1-1.234 3.246-3.228 3.377-1.71.115-5.167.362-5.167.362v16.07h41.38V89.869s-3.258-.23-5.165-.36c-1.997-.136-3.208-1.279-3.208-3.378Zm54.576 2.207c-3.44.254-9.808-.325-13.904-7.513v-10.53l.003-.005h-.003V58.114c0-5.265 4.862-9.884 12.386-10.164 7.62-.281 14.364 4.92 14.364 19.61 0 19.816-8.691 20.471-12.846 20.778Zm3.747-59.088c-6.256.274-12.857 2.667-17.651 6.835V.987h-8.858s-14.482 5.146-25.695 6.52l-.366 16.072 7.09.01c2.176 0 3.112.926 3.14 2.96v79.338l20.256-.022 2.893-6.51c.62.348 9.913 9.083 24.753 7.335 18.685-2.204 28.497-16.997 28.497-39.44 0-11.775-3.613-39.332-34.06-38Zm155.68 14.59c-.825-17.93-25.103-18.754-37.795-6.643l-2.315-6.944h-29.347v16.432l6.153-.01c2.18 0 2.988.926 3.017 2.958v36.434c0 2.1-1.238 3.248-3.23 3.376-1.71.113-5.15.36-5.15.36v16.073h41.32V89.803s-3.417-.247-5.123-.36c-1.997-.128-3.233-1.277-3.233-3.376l-.01-24.704c0-4.63 1.061-12.358 9.233-14.334 1.01 7.727 8.474 10.035 12.116 10.035 9.196 0 14.364-6.886 14.364-13.224Zm-85.21 42.227.022-85.08h-8.95s-14.868 5.378-25.578 6.52V23.58h6.76c2.177 0 3.087.927 3.117 2.959v59.53c0 2.098-1.231 3.247-3.226 3.375-1.708.113-5.535.362-5.535.362v16.071h42.154V89.805s-3.83-.249-5.537-.362c-1.997-.128-3.227-1.277-3.227-3.376Zm81.13-8.254c-8.185 0-14.815 6.497-14.815 14.508 0 8.005 6.63 14.504 14.815 14.504 8.187 0 14.817-6.499 14.817-14.504 0-8.011-6.63-14.508-14.817-14.508Z" fill="#303D4D"/></svg>
